!!!SOCIAL_FUNCTION:	songs for little children
!!!PDT:	1939
!!!OTL: No_119_"Let_Us_Go_After_Crabs".krn
!!!LANG: Non-Tone
!!!LING_GROUP: Wakashan
!!!REG: Pacific Northwest
**kern
*staff1
=1-
*clefF4
*k[f#]
*M3/4
4c\
8c\L
8c\J
4c\
=2||
*M2/4
2c\
=3
4r
8c\L
8d\J
=4
2d\
=5!|:
2d\
=6||
*M7/8
8c\L
8c\
8c\
8c\
8c\J
4d\
=7||
*M2/4
2d\
=8
4r
8e\L
8e\J
=9
4d\
8c\L
8c\J
=10
4B\
8d\
8r
=11
8.d\L
16c\Jk
8d\L
16c\L
16c\JJ
=12
[2B\
=13
4B\]
4r
=14
4B\
8d\L
16d\L
16c\JJ
=15||
*M3/4
2.B\
=16
8d\L
16B\L
16B\JJ
4B\
8B\
8r
=17
2.B\
=18
4B\
8B\L
8B\J
4B\
=19
2.B\
=20
8B\L
8d\J
8d\L
[8d\J
4d\]
=21:|!
2.B\
==
*-
